; HEADER_BLOCK_START
; generated by OrcaSlicer 2.2.0 on 2024-12-22 at 00:56:14
; total layer number: 2
; filament_density: 1.24,1.24
; filament_diameter: 1.75,1.75
; max_z_height: 0.40
; HEADER_BLOCK_END

; THUMBNAIL_BLOCK_START

;
; THUMBNAIL_BLOCK_END

; THUMBNAIL_BLOCK_START

;
; THUMBNAIL_BLOCK_END

; THUMBNAIL_BLOCK_START

;
; THUMBNAIL_BLOCK_END

; external perimeters extrusion width = 0.40mm
; perimeters extrusion width = 0.40mm
; infill extrusion width = 0.45mm
; solid infill extrusion width = 0.40mm
; top infill extrusion width = 0.40mm
; first layer extrusion width = 0.50mm

; EXECUTABLE_BLOCK_START
EXCLUDE_OBJECT_DEFINE NAME=prusa.stl_id_0_copy_0 CENTER=168,172 POLYGON=[[50.603,94.002],[70.002,74.77],[274.068,74.77],[285.397,88.6228],[285.397,249.998],[265.998,269.23],[62.6492,269.23],[50.603,257.377],[50.603,94.002]]
M73 P0 R8
;TYPE:Custom
G28
G90
G1 X22 F9000
G1 Y20
G1 Z0.600 F600
G1 Y5 F9000
SET_HEATER_TEMPERATURE HEATER=extruder TARGET=150
M140 S60 ;set bed temp
M190 S60 ;wait for bed temp
START_PRINT
G92 E0.0 ; reset extruder
G1 X199.397 Y283.23 Z0.8 F6000.0 ; position 10mm behind print.
M104 S210 ;set extruder temp
M109 S210;wait for extruder temp

G92 E0.0 ; reset extruder
G1 X209.397 Y283.23 Z0.8 F6000.0 ; position 10mm behind print.
G1 X169.397 Y283.23 E40 F360.0 ; extrude 40mm of filament in the x direction
G92 E0.0 ; reset extruder
G1 E-0.5 F2100 ; small retraction
M73 P2 R8
M73 P2 R8
G1 X249.397 F6000.0 ; move an additional 10mm without extruding
G92 E0.0 ; reset extruder
G90
G21
M83 ; use relative distances for extrusion
SET_PRESSURE_ADVANCE ADVANCE=0.05; Override pressure advance value
T0
M106 S0
;LAYER_CHANGE
;Z:0.2
;HEIGHT:0.2
G1 E-1 F3000
;_SET_FAN_SPEED_CHANGING_LAYER
SET_VELOCITY_LIMIT ACCEL=1500 ACCEL_TO_DECEL=750
SET_VELOCITY_LIMIT SQUARE_CORNER_VELOCITY=9
; printing object prusa.stl id:0 copy 0
EXCLUDE_OBJECT_START NAME=prusa.stl_id_0_copy_0
G1 Z.4 F21000
G1 X182.797 Y240.037
G1 Z.4
G1 Z.2
G1 E1 F3000
;TYPE:Inner wall
;WIDTH:0.5
G1 F3600
G1 X171.14 Y240.037 E.40317
G1 X171.14 Y186.375 E1.85595
G1 X184.09 Y186.375 E.44789
G1 X184.09 Y174.556 E.40877
G1 X207.84 Y174.556 E.82142
G1 X207.84 Y184.339 E.33835
G1 X231.226 Y184.339 E.80882
G1 X231.226 Y174.556 E.33835
M73 P3 R8
M73 P3 R8
G1 X256.204 Y174.556 E.86389
G1 X256.204 Y186.375 E.40877
G1 X268.205 Y186.375 E.41506
G1 X268.205 Y240.037 E1.85595
G1 X256.204 Y240.037 E.41506
G1 X256.204 Y252.053 E.41558
G1 X184.09 Y252.053 E2.49412
G1 X184.09 Y240.037 E.41558
G1 X182.817 Y240.037 E.04402
G1 E-1 F3000
G1 Z.4 F21000
G1 X184.547 Y239.58 Z.4
G1 Z.2
G1 E1 F3000
;TYPE:Outer wall
G1 F3600
G1 X171.597 Y239.58 E.44789
G1 X171.597 Y186.832 E1.82433
G1 X184.547 Y186.832 E.44789
M73 P4 R8
M73 P4 R8
G1 X184.547 Y175.013 E.40877
G1 X207.383 Y175.013 E.7898
G1 X207.383 Y184.796 E.33835
G1 X231.683 Y184.796 E.84043
G1 X231.683 Y175.013 E.33835
G1 X255.747 Y175.013 E.83227
G1 X255.747 Y186.832 E.40877
G1 X267.748 Y186.832 E.41506
G1 X267.748 Y239.58 E1.82433
G1 X255.747 Y239.58 E.41506
M73 P4 R7
M73 P4 R7
G1 X255.747 Y251.596 E.41558
G1 X184.547 Y251.596 E2.46251
G1 X184.547 Y239.6 E.41489
M73 P5 R7
M73 P5 R7
G1 E-1 F3000
G1 Z.4 F21000
G1 X207.84 Y162.246 Z.4
G1 Z.2
G1 E1 F3000
;TYPE:Inner wall
G1 F3600
G1 X207.84 Y170.17 E.27406
G1 X184.09 Y170.17 E.82142
G1 X184.09 Y157.99 E.42125
G1 X171.388 Y157.99 E.43931
G1 X171.388 Y103.963 E1.86857
G1 X184.09 Y103.963 E.43931
G1 X184.09 Y90.801 E.45522
G1 X256.204 Y90.801 E2.49412
G1 X256.204 Y103.963 E.45522
M73 P6 R7
M73 P6 R7
G1 X268.453 Y103.963 E.42364
G1 X268.453 Y157.99 E1.86857
G1 X256.204 Y157.99 E.42364
G1 X256.204 Y170.17 E.42125
G1 X231.226 Y170.17 E.86389
G1 X231.226 Y160.953 E.31878
G1 X207.84 Y160.953 E.80882
G1 X207.84 Y162.226 E.04402
G1 E-1 F3000
G1 Z.4 F21000
G1 X207.383 Y160.496 Z.4
G1 Z.2
G1 E1 F3000
;TYPE:Outer wall
G1 F3600
G1 X207.383 Y169.713 E.31878
G1 X184.547 Y169.713 E.7898
G1 X184.547 Y157.533 E.42125
G1 X171.845 Y157.533 E.43931
G1 X171.845 Y104.42 E1.83695
G1 X184.547 Y104.42 E.43931
M73 P7 R7
M73 P7 R7
G1 X184.547 Y91.258 E.45522
G1 X255.747 Y91.258 E2.46251
G1 X255.747 Y104.42 E.45522
G1 X267.996 Y104.42 E.42364
G1 X267.996 Y157.533 E1.83695
G1 X255.747 Y157.533 E.42364
G1 X255.747 Y169.713 E.42125
G1 X231.683 Y169.713 E.83227
G1 X231.683 Y160.496 E.31878
G1 X207.403 Y160.496 E.83974
G1 E-1 F3000
G1 Z.4 F21000
G1 X105.723 Y162.246 Z.4
G1 Z.2
M73 P8 R7
M73 P8 R7
G1 E1 F3000
;TYPE:Inner wall
G1 F3600
G1 X105.723 Y170.17 E.27406
G1 X79.796 Y170.17 E.89671
G1 X79.796 Y157.99 E.42125
G1 X67.317 Y157.99 E.4316
G1 X67.317 Y103.963 E1.86857
G1 X79.796 Y103.963 E.4316
G1 X79.796 Y90.955 E.44989
G1 X155.704 Y90.955 E2.62534
G1 X155.704 Y103.963 E.44989
G1 X168.002 Y103.963 E.42534
G1 X168.002 Y157.99 E1.86857
G1 X155.704 Y157.99 E.42534
M73 P9 R7
M73 P9 R7
G1 X155.704 Y170.17 E.42125
G1 X129.109 Y170.17 E.91981
G1 X129.109 Y160.953 E.31878
G1 X105.723 Y160.953 E.80882
G1 X105.723 Y162.226 E.04402
G1 E-1 F3000
G1 Z.4 F21000
G1 X105.266 Y160.496 Z.4
G1 Z.2
G1 E1 F3000
;TYPE:Outer wall
G1 F3600
G1 X105.266 Y169.713 E.31878
G1 X80.253 Y169.713 E.86509
G1 X80.253 Y157.533 E.42125
G1 X67.774 Y157.533 E.4316
G1 X67.774 Y104.42 E1.83695
G1 X80.253 Y104.42 E.4316
G1 X80.253 Y91.412 E.44989
G1 X155.247 Y91.412 E2.59372
G1 X155.247 Y104.42 E.44989
M73 P10 R7
M73 P10 R7
G1 X167.545 Y104.42 E.42534
G1 X167.545 Y157.533 E1.83695
G1 X155.247 Y157.533 E.42534
G1 X155.247 Y169.713 E.42125
G1 X129.566 Y169.713 E.8882
G1 X129.566 Y160.496 E.31878
G1 X105.286 Y160.496 E.83974
G1 E-1 F3000
G1 Z.4 F21000
G1 X107.016 Y184.339 Z.4
G1 Z.2
G1 E1 F3000
;TYPE:Inner wall
G1 F3600
G1 X129.109 Y184.339 E.7641
G1 X129.109 Y174.556 E.33835
G1 X155.704 Y174.556 E.91981
M73 P11 R7
M73 P11 R7
G1 X155.704 Y186.375 E.40877
G1 X167.754 Y186.375 E.41676
G1 X167.754 Y240.037 E1.85595
G1 X155.704 Y240.037 E.41676
G1 X155.704 Y252.071 E.4162
G1 X79.796 Y252.071 E2.62534
G1 X79.796 Y240.037 E.4162
G1 X67.069 Y240.037 E.44017
G1 X67.069 Y186.375 E1.85595
G1 X79.796 Y186.375 E.44017
M73 P12 R7
M73 P12 R7
G1 X79.796 Y174.556 E.40877
G1 X105.723 Y174.556 E.89671
G1 X105.723 Y184.339 E.33835
G1 X106.996 Y184.339 E.04402
G1 E-1 F3000
G1 Z.4 F21000
G1 X105.266 Y184.796 Z.4
G1 Z.2
G1 E1 F3000
;TYPE:Outer wall
G1 F3600
G1 X129.566 Y184.796 E.84043
G1 X129.566 Y175.013 E.33835
G1 X155.247 Y175.013 E.8882
G1 X155.247 Y186.832 E.40877
G1 X167.297 Y186.832 E.41676
G1 X167.297 Y239.58 E1.82433
G1 X155.247 Y239.58 E.41676
G1 X155.247 Y251.614 E.4162
G1 X80.253 Y251.614 E2.59372
G1 X80.253 Y239.58 E.4162
M73 P13 R7
M73 P13 R7
G1 X67.526 Y239.58 E.44017
G1 X67.526 Y186.832 E1.82433
G1 X80.253 Y186.832 E.44017
G1 X80.253 Y175.013 E.40877
G1 X105.266 Y175.013 E.86509
G1 X105.266 Y184.776 E.33766
G1 E-1 F3000
G1 Z.4 F21000
G1 X79.796 Y257.371 Z.4
G1 Z.2
G1 E1 F3000
;TYPE:Inner wall
G1 F3600
G1 X79.796 Y268.423 E.38224
G1 X63.594 Y268.423 E.56036
G1 X63.819 Y267 E.04982
G1 X63.29 Y263.657 E.11708
G1 X61.753 Y260.641 E.11707
G1 X59.359 Y258.247 E.11708
G1 X56.343 Y256.71 E.11707
G1 X53 Y256.181 E.11708
G1 X51.41 Y256.432 E.05567
G1 X51.41 Y240.037 E.56704
G1 X63.683 Y240.037 E.42447
G1 X63.683 Y186.375 E1.85595
M73 P14 R7
M73 P14 R7
G1 X51.41 Y186.375 E.42447
G1 X51.41 Y157.99 E.98171
G1 X63.931 Y157.99 E.43305
G1 X63.931 Y103.963 E1.86857
G1 X51.41 Y103.963 E.43305
G1 X51.41 Y94.809 E.31659
G1 X61.095 Y94.809 E.33496
G1 X61.506 Y93.275 E.05493
G1 X62.094 Y92.015 E.04809
G1 X62.892 Y90.876 E.04809
G1 X63.875 Y89.893 E.0481
G1 X65.014 Y89.095 E.04809
G1 X66.274 Y88.507 E.04809
G1 X67.618 Y88.147 E.0481
G1 X69.002 Y88.026 E.04807
G1 X70.809 Y88.184 E.06274
G1 X70.809 Y75.577 E.43603
G1 X79.796 Y75.577 E.31082
G1 X79.796 Y86.569 E.38017
G1 X155.704 Y86.569 E2.62534
G1 X155.704 Y75.577 E.38017
M73 P15 R7
M73 P15 R7
G1 X184.09 Y75.577 E.98175
G1 X184.09 Y86.415 E.37484
G1 X256.204 Y86.415 E2.49412
G1 X256.204 Y75.577 E.37484
G1 X272.722 Y75.577 E.5713
G1 X272.181 Y79 E.11986
G1 X272.71 Y82.343 E.11708
G1 X274.247 Y85.359 E.11707
G1 X276.641 Y87.753 E.11708
G1 X279.657 Y89.29 E.11707
G1 X283 Y89.819 E.11708
G1 X284.59 Y89.568 E.05567
G1 X284.59 Y103.963 E.49787
G1 X271.839 Y103.963 E.441
G1 X271.839 Y157.99 E1.86857
G1 X284.59 Y157.99 E.441
M73 P16 R7
M73 P16 R7
G1 X284.59 Y186.375 E.98171
G1 X271.591 Y186.375 E.44958
G1 X271.591 Y240.037 E1.85595
G1 X284.59 Y240.037 E.44958
G1 X284.59 Y249.191 E.31659
G1 X274.905 Y249.191 E.33496
G1 X274.494 Y250.725 E.05493
G1 X273.906 Y251.985 E.04809
M73 P16 R6
M73 P16 R6
G1 X273.108 Y253.124 E.04809
G1 X272.125 Y254.107 E.0481
G1 X270.986 Y254.905 E.04809
G1 X269.726 Y255.493 E.04809
G1 X268.382 Y255.853 E.0481
G1 X266.998 Y255.974 E.04807
G1 X265.191 Y255.816 E.06274
G1 X265.191 Y268.423 E.43603
G1 X256.204 Y268.423 E.31082
G1 X256.204 Y256.439 E.41448
G1 X184.09 Y256.439 E2.49412
G1 X184.09 Y268.423 E.41448
G1 X155.704 Y268.423 E.98175
M73 P17 R6
M73 P17 R6
G1 X155.704 Y256.457 E.41385
G1 X79.796 Y256.457 E2.62534
G1 X79.796 Y257.351 E.03092
G1 X80.253 Y256.914 F21000
;TYPE:Outer wall
G1 F3600
G1 X80.253 Y268.88 E.41385
G1 X63.059 Y268.88 E.59467
G1 X63.356 Y267 E.06583
G1 X62.85 Y263.8 E.11207
G1 X61.379 Y260.913 E.11206
G1 X59.087 Y258.621 E.11207
G1 X56.2 Y257.15 E.11206
G1 X53 Y256.644 E.11207
G1 X50.953 Y256.967 E.07168
G1 X50.953 Y239.58 E.60136
G1 X63.226 Y239.58 E.42447
G1 X63.226 Y186.832 E1.82433
G1 X50.953 Y186.832 E.42447
G1 X50.953 Y157.533 E1.01333
G1 X63.474 Y157.533 E.43305
M73 P18 R6
M73 P18 R6
G1 X63.474 Y104.42 E1.83695
G1 X50.953 Y104.42 E.43305
G1 X50.953 Y94.352 E.34821
G1 X60.744 Y94.352 E.33864
G1 X61.075 Y93.118 E.04418
G1 X61.696 Y91.785 E.05085
G1 X62.54 Y90.581 E.05086
G1 X63.58 Y89.541 E.05086
G1 X64.784 Y88.697 E.05086
G1 X66.117 Y88.076 E.05086
G1 X67.538 Y87.696 E.05086
G1 X69.002 Y87.567 E.05083
G1 X70.352 Y87.685 E.04687
G1 X70.352 Y75.12 E.43459
G1 X80.253 Y75.12 E.34243
G1 X80.253 Y86.112 E.38017
G1 X155.247 Y86.112 E2.59372
G1 X155.247 Y75.12 E.38017
G1 X184.547 Y75.12 E1.01336
G1 X184.547 Y85.958 E.37484
G1 X255.747 Y85.958 E2.46251
M73 P19 R6
M73 P19 R6
G1 X255.747 Y75.12 E.37484
G1 X273.496 Y75.12 E.61387
G1 X273.15 Y75.8 E.02638
G1 X272.644 Y79 E.11207
G1 X273.15 Y82.2 E.11207
G1 X274.621 Y85.087 E.11206
G1 X276.913 Y87.379 E.11207
G1 X279.8 Y88.85 E.11206
G1 X283 Y89.356 E.11207
G1 X285.047 Y89.033 E.07168
G1 X285.047 Y104.42 E.53219
G1 X272.296 Y104.42 E.441
G1 X272.296 Y157.533 E1.83695
G1 X285.047 Y157.533 E.441
G1 X285.047 Y186.832 E1.01333
G1 X272.048 Y186.832 E.44958
G1 X272.048 Y239.58 E1.82433
G1 X285.047 Y239.58 E.44958
M73 P20 R6
M73 P20 R6
G1 X285.047 Y249.648 E.34821
G1 X275.256 Y249.648 E.33864
G1 X274.925 Y250.882 E.04418
G1 X274.304 Y252.215 E.05085
G1 X273.46 Y253.419 E.05086
G1 X272.42 Y254.459 E.05086
G1 X271.216 Y255.303 E.05086
G1 X269.883 Y255.924 E.05086
G1 X268.462 Y256.304 E.05086
G1 X266.998 Y256.433 E.05083
G1 X265.648 Y256.315 E.04687
G1 X265.648 Y268.88 E.43459
G1 X255.747 Y268.88 E.34243
G1 X255.747 Y256.896 E.41448
G1 X184.547 Y256.896 E2.46251
G1 X184.547 Y268.88 E.41448
G1 X155.247 Y268.88 E1.01336
G1 X155.247 Y256.914 E.41385
G1 X80.273 Y256.914 E2.59303
G1 E-1 F3000
M73 P21 R6
M73 P21 R6
G1 Z.4 F21000
G1 X284.453 Y90.466 Z.4
G1 Z.2
G1 E1 F3000
;TYPE:Bottom surface
;WIDTH:0.500286
G1 F6000
G1 X283.995 Y90.009 E.02239
G1 X283.437 Y90.097 E.01957
G1 X284.247 Y90.907 E.03966
G1 X284.247 Y91.554 E.02238
G1 X282.833 Y90.14 E.06923
G1 X282.064 Y90.018 E.02692
G1 X284.247 Y92.201 E.10683
G1 X284.247 Y92.848 E.02238
G1 X281.296 Y89.897 E.14444
G1 X280.528 Y89.775 E.02692
G1 X284.247 Y93.495 E.18205
G1 X284.247 Y94.141 E.02238
G1 X279.759 Y89.653 E.21965
G1 X279.549 Y89.62 E.00735
G1 X278.59 Y89.132 E.03724
G1 X284.453 Y94.994 E.28692
G1 E-1 F3000
G1 Z.4 F21000
G1 X272.436 Y76.509 Z.4
G1 Z.2
G1 E1 F3000
G1 F6000
G1 X271.847 Y75.92 E.02884
G1 X271.2 Y75.92 E.02238
G1 X272.168 Y76.888 E.04737
G1 X272.08 Y77.446 E.01957
G1 X270.553 Y75.92 E.0747
G1 X269.906 Y75.92 E.02238
G1 X271.991 Y78.005 E.10204
G1 X271.903 Y78.563 E.01957
G1 X269.26 Y75.92 E.12937
G1 X268.613 Y75.92 E.02238
G1 X271.86 Y79.167 E.15894
G1 X271.982 Y79.936 E.02692
G1 X267.966 Y75.92 E.19654
G1 X267.319 Y75.92 E.02238
G1 X272.103 Y80.704 E.23415
G1 X272.225 Y81.472 E.02692
G1 X266.672 Y75.92 E.27176
G1 X266.026 Y75.92 E.02238
G1 X272.347 Y82.241 E.30936
G1 X272.38 Y82.451 E.00735
G1 X272.868 Y83.41 E.03724
G1 X265.379 Y75.92 E.36656
G1 X264.732 Y75.92 E.02238
G1 X273.541 Y84.729 E.43113
G1 X273.966 Y85.563 E.03242
G1 X276.437 Y88.034 E.12091
G1 X277.271 Y88.459 E.03242
G1 X284.247 Y95.435 E.34141
G1 X284.247 Y96.082 E.02238
M73 P22 R6
M73 P22 R6
G1 X264.085 Y75.92 E.98677
G1 X263.438 Y75.92 E.02238
G1 X284.247 Y96.729 E1.01843
G1 X284.247 Y97.376 E.02238
G1 X262.791 Y75.92 E1.05009
G1 X262.145 Y75.92 E.02238
G1 X284.247 Y98.022 E1.08174
G1 X284.247 Y98.669 E.02238
G1 X261.498 Y75.92 E1.1134
G1 X260.851 Y75.92 E.02238
G1 X284.247 Y99.316 E1.14506
G1 X284.247 Y99.963 E.02238
G1 X260.204 Y75.92 E1.17671
G1 X259.557 Y75.92 E.02238
G1 X284.247 Y100.61 E1.20837
G1 X284.247 Y101.256 E.02238
G1 X258.911 Y75.92 E1.24003
G1 X258.264 Y75.92 E.02238
G1 X284.247 Y101.903 E1.27168
G1 X284.247 Y102.55 E.02238
G1 X257.617 Y75.92 E1.30334
G1 X256.97 Y75.92 E.02238
G1 X284.247 Y103.197 E1.335
G1 X284.247 Y103.62 E.01465
M73 P23 R6
M73 P23 R6
G1 X284.024 Y103.62 E.00774
G1 X256.547 Y76.143 E1.34477
G1 X256.547 Y76.79 E.02238
G1 X283.377 Y103.62 E1.31312
G1 X282.73 Y103.62 E.02238
G1 X256.547 Y77.437 E1.28146
G1 X256.547 Y78.084 E.02238
G1 X282.083 Y103.62 E1.2498
G1 X281.436 Y103.62 E.02238
G1 X256.547 Y78.731 E1.21815
G1 X256.547 Y79.377 E.02238
G1 X280.79 Y103.62 E1.18649
G1 X280.143 Y103.62 E.02238
G1 X256.547 Y80.024 E1.15483
G1 X256.547 Y80.671 E.02238
G1 X279.496 Y103.62 E1.12318
G1 X278.849 Y103.62 E.02238
G1 X256.547 Y81.318 E1.09152
G1 X256.547 Y81.965 E.02238
G1 X278.202 Y103.62 E1.05986
G1 X277.555 Y103.62 E.02238
G1 X256.547 Y82.612 E1.02821
G1 X256.547 Y83.258 E.02238
G1 X276.909 Y103.62 E.99655
G1 X276.262 Y103.62 E.02238
M73 P24 R6
M73 P24 R6
G1 X256.547 Y83.905 E.96489
G1 X256.547 Y84.552 E.02238
G1 X275.615 Y103.62 E.93324
G1 X274.968 Y103.62 E.02238
G1 X256.547 Y85.199 E.90158
G1 X256.547 Y85.846 E.02238
G1 X274.321 Y103.62 E.86992
G1 X273.675 Y103.62 E.02238
G1 X256.547 Y86.492 E.83827
G1 X256.547 Y86.758 E.00919
G1 X256.166 Y86.758 E.0132
G1 X273.028 Y103.62 E.82528
G1 X272.381 Y103.62 E.02238
G1 X255.519 Y86.758 E.82528
G1 X254.872 Y86.758 E.02238
G1 X271.734 Y103.62 E.82528
G1 X271.496 Y103.62 E.00824
G1 X271.496 Y104.029 E.01415
G1 X254.225 Y86.758 E.84528
G1 X253.578 Y86.758 E.02238
G1 X271.496 Y104.676 E.87694
G1 X271.496 Y105.323 E.02238
G1 X252.931 Y86.758 E.9086
G1 X252.285 Y86.758 E.02238
G1 X255.985 Y90.458 E.1811
G1 X256.547 Y90.458 E.01945
G1 X256.547 Y91.02 E.01945
G1 X271.496 Y105.969 E.73165
G1 X271.496 Y106.616 E.02238
G1 X256.547 Y91.667 E.73165
G1 X256.547 Y92.314 E.02238
G1 X267.853 Y103.62 E.55336
G1 X267.206 Y103.62 E.02238
G1 X256.547 Y92.961 E.5217
G1 X256.547 Y93.607 E.02238
M73 P25 R6
M73 P25 R6
G1 X266.56 Y103.62 E.49005
G1 X265.913 Y103.62 E.02238
G1 X256.547 Y94.254 E.45839
G1 X256.547 Y94.901 E.02238
G1 X265.266 Y103.62 E.42673
G1 X264.619 Y103.62 E.02238
G1 X256.547 Y95.548 E.39508
G1 X256.547 Y96.195 E.02238
G1 X263.972 Y103.62 E.36342
G1 X263.326 Y103.62 E.02238
G1 X256.547 Y96.841 E.33176
G1 X256.547 Y97.488 E.02238
G1 X262.679 Y103.62 E.30011
G1 X262.032 Y103.62 E.02238
G1 X256.547 Y98.135 E.26845
G1 X256.547 Y98.782 E.02238
G1 X261.385 Y103.62 E.23679
G1 X260.738 Y103.62 E.02238
G1 X256.547 Y99.429 E.20514
G1 X256.547 Y100.076 E.02238
G1 X260.091 Y103.62 E.17348
G1 X259.445 Y103.62 E.02238
G1 X256.547 Y100.722 E.14182
G1 X256.547 Y101.369 E.02238
G1 X258.798 Y103.62 E.11017
G1 X258.151 Y103.62 E.02238
G1 X256.547 Y102.016 E.07851
G1 X256.547 Y102.663 E.02238
G1 X257.504 Y103.62 E.04685
G1 X256.857 Y103.62 E.02238
G1 X256.341 Y103.104 E.02527
G1 E-1 F3000
G1 Z.4 F21000
G1 X268.59 Y104.357 Z.4
G1 Z.2
G1 E1 F3000
G1 F6000
G1 X271.496 Y107.263 E.14222
G1 X271.496 Y107.91 E.02238
G1 X268.796 Y105.21 E.13216
